applets/24x24/camera-off-symbolic.svg

<?xml version="1.0" encoding="UTF-8" standalone="no"?>
<svg xmlns:inkscape="http://www.inkscape.org/namespaces/inkscape" xmlns:sodipodi="http://sodipodi.sourceforge.net/DTD/sodipodi-0.dtd" xmlns="http://www.w3.org/2000/svg" xmlns:svg="http://www.w3.org/2000/svg" version="1.1" viewBox="0 0 24 24" id="svg1" sodipodi:docname="camera-off-symbolic.svg" inkscape:version="1.4.3 (0d15f75042, 2025-12-25)" xml:space="preserve" width="24" height="24">
  <defs>
    <style id="current-color-scheme" type="text/css">.ColorScheme-Text { color:#232629; }</style>
  </defs>
  <g transform="translate(1,1)">

  <sodipodi:namedview id="namedview1" pagecolor="#505050" bordercolor="#eeeeee" borderopacity="1" inkscape:showpageshadow="0" inkscape:pageopacity="0" inkscape:pagecheckerboard="0" inkscape:deskcolor="#505050" showgrid="true" inkscape:zoom="31.970867" inkscape:cx="-2.7994236" inkscape:cy="10.728517" inkscape:current-layer="svg1">
    <inkscape:grid id="grid1" units="px" originx="0" originy="0" spacingx="1" spacingy="1" empcolor="#0099e5" empopacity="0.30196078" color="#0099e5" opacity="0.14902" empspacing="2" enabled="true" visible="true"/>
  </sodipodi:namedview>
  <defs id="defs1"/>
  <path id="smartphone" style="opacity:0.4" class="ColorScheme-Text" d="M 5,4 C 3.89201,4 3,4.892 3,6 v 4 c 0,1.892734 1.3141235,3.479135 3.0800781,3.894531 L 6.9746094,13 C 5.3295022,12.986296 4,11.648341 4,10 V 6 C 4,5.446 4.44601,5 5,5 h 9.974609 l 1,-1 H 11 Z M 17.357422,4.03125 16.388672,5 H 17 c 0.554,0 1,0.446 1,1 v 4 c 0,1.656854 -1.343146,3 -3,3 H 8.3886719 l -1,1 H 9 v 4 H 7 C 6.72386,18 6.5,18.22386 6.5,18.5 6.5,18.77614 6.72386,19 7,19 h 8 c 0.27614,0 0.5,-0.22386 0.5,-0.5 C 15.5,18.22386 15.27614,18 15,18 h -2 v -4 h 2 c 2.209139,0 4,-1.790861 4,-4 V 6 C 19,5.013907 18.293944,4.1986461 17.357422,4.03125 Z M 11,6 C 9.3431458,6 8,7.3431458 8,9 7.9995828,9.7895907 8.3104706,10.547511 8.8652344,11.109375 L 9.5722656,10.400391 C 9.2055151,10.026525 9.0000447,9.5237188 9,9 c -6e-7,-1.1045697 0.8954303,-2.0000006 2,-2 0.523719,4.47e-5 1.026525,0.2055151 1.400391,0.5722656 L 13.109375,6.8652344 C 12.547511,6.3104706 11.789591,5.9995828 11,6 Z m 5.5,0 C 16.223858,6 16,6.2238576 16,6.5 16,6.7761424 16.223858,7 16.5,7 16.776142,7 17,6.7761424 17,6.5 17,6.2238576 16.776142,6 16.5,6 Z M 10,14 h 2 v 4 h -2 z" sodipodi:nodetypes="sssccssscccsccssssccccssssssccsssccccccccccsssssccccc"/>
  <g id="g3" transform="translate(0.244475,0.30194553)">
    <g transform="translate(0.29462,0.2059)" id="g2">
    <path class="ColorScheme-Text" d="m 18.332,2.0095 c -0.08489,0.022497 -0.16236,0.066958 -0.22461,0.12891 l -16,16 c -0.19521,0.19525 -0.19521,0.51178 0,0.70703 0.19525,0.19521 0.51178,0.19521 0.70703,0 l 16,-16 c 0.19521,-0.19525 0.19521,-0.51178 0,-0.70703 C 18.68812,2.01247 18.50429,1.96335 18.332,2.0095 Z" fill="currentColor" id="path2"/>
  </g>
  </g>
  <g transform="translate(0.056675,-0.32809447)" id="g4">
    
  </g>

  </g>
</svg>

<?xml version="1.0" encoding="UTF-8"?>
<svg width="24" height="24" version="1.1" viewBox="0 0 24 24" xml:space="preserve" xmlns="http://www.w3.org/2000/svg">
  <defs>
    <style id="current-color-scheme" type="text/css">.ColorScheme-Text { color:#232629; }</style>
  </defs>
  <g transform="translate(1,1)">

  
  
  <path id="smartphone" class="ColorScheme-Text" d="m5 4c-1.108 0-2 0.892-2 2v4c0 1.8927 1.3141 3.4791 3.0801 3.8945l0.89453-0.89453c-1.6451-0.013704-2.9746-1.3517-2.9746-3v-4c0-0.554 0.44601-1 1-1h9.9746l1-1h-4.9746zm12.357 0.03125-0.96875 0.96875h0.61133c0.554 0 1 0.446 1 1v4c0 1.6569-1.3431 3-3 3h-6.6113l-1 1h1.6113v4h-2c-0.27614 0-0.5 0.22386-0.5 0.5s0.22386 0.5 0.5 0.5h8c0.27614 0 0.5-0.22386 0.5-0.5s-0.22386-0.5-0.5-0.5h-2v-4h2c2.2091 0 4-1.7909 4-4v-4c0-0.98609-0.70606-1.8014-1.6426-1.9688zm-6.3574 1.9688c-1.6569 0-3 1.3431-3 3-4.172e-4 0.78959 0.31047 1.5475 0.86523 2.1094l0.70703-0.70898c-0.36675-0.37387-0.57222-0.87667-0.57227-1.4004-6e-7 -1.1046 0.89543-2 2-2 0.52372 4.47e-5 1.0265 0.20552 1.4004 0.57227l0.70898-0.70703c-0.56186-0.55476-1.3198-0.86565-2.1094-0.86523zm5.5 0c-0.27614 0-0.5 0.22386-0.5 0.5s0.22386 0.5 0.5 0.5 0.5-0.22386 0.5-0.5-0.22386-0.5-0.5-0.5zm-6.5 8h2v4h-2z" fill="currentColor" opacity=".4"/>
  <g transform="translate(.24448 .30195)">
    <g transform="translate(.29462 .2059)">
    <path class="ColorScheme-Text" d="m18.332 2.0095c-0.08489 0.022497-0.16236 0.066958-0.22461 0.12891l-16 16c-0.19521 0.19525-0.19521 0.51178 0 0.70703 0.19525 0.19521 0.51178 0.19521 0.70703 0l16-16c0.19521-0.19525 0.19521-0.51178 0-0.70703-0.1263-0.12594-0.31013-0.17506-0.48242-0.12891z" fill="currentColor"/>
  </g>
  </g>
  

  </g>
</svg>
